X: 1361
T: An Puncan
R: polka
M: 2/4
K: Dmajor
|:dA BA|FA DF/A/|dA BA|Be ef|
dA BA|FA DF/A/|dA BA|Bc d2:|
|:A>A AB|Ad fd|B>B Bd|Bd gB|
A>A AB|Ad fd|fd BA|Bc d2:|

